X:7828
T:Reinlender etter Arne Birkeland
C:anon.
O:Norway
N:After Arne Birkeland
Z:Transcribed by Frank Nordberg - http://www.musicaviva.com
F:http://abc.musicaviva.com/tunes/norway/reinlender-birkeland/reinlender-birkeland-1.abc
%u - upstroke
%v - downstroke
M:2/4
L:1/16
K:D
(uFG)|vABAG FGFE|D2A,2 A,2(FG)|FEEF G2(AB)|BAFG A2(uFG)|
w: 2 3 0 1 0 3 2 3 2 1 0 1 1 2 3 2 1 1 2 3 0 1 1 0 2 3 0 2 3
ABAG FGFE|D2A,2 A,2(FG)|FEEF GABc|d2d2 d2:|(uFG)|
w: 0 1 0 3 2 3 2 1 0 1 1 2 3 2 1 1 2 3 0 1 2 3 3 3 2 3
vA2d2 d2(DE)|F2(DE) F2(GF)|E2c2 c2(AB)|cBA^G A2(uF=G)|
w: 0 3 3 0 1 2 0 1 2 3 2 1 2 2 0 1 2 1 0 3 0 2 3
A2d2 d2(DE)|F2(DE) F2(GF)|E2(cB) AGFE|D2D2 D2:|
w: 0 3 3 0 1 2 0 1 2 3 2 1 2 1 0 3 2 1 0 0 0
W:
W:
W:  From Musica Viva - http://www.musicaviva.com
W:  the Internet center for free sheet music downloads.

